src/lib/packages/icons/src/assets/line/arrows-left-right.svg

<svg width="24" height="24" viewBox="0 0 24 24" fill="none" xmlns="http://www.w3.org/2000/svg">
<path d="M21.692 12.2871C21.654 12.3791 21.5991 12.462 21.5301 12.531L17.5301 16.531C17.3841 16.677 17.1921 16.751 17.0001 16.751C16.8081 16.751 16.6161 16.678 16.4701 16.531C16.1771 16.238 16.1771 15.763 16.4701 15.47L19.1901 12.75H4.81115L7.53112 15.47C7.82412 15.763 7.82412 16.238 7.53112 16.531C7.38512 16.677 7.19309 16.751 7.00109 16.751C6.80909 16.751 6.61706 16.678 6.47106 16.531L2.47106 12.531C2.40206 12.462 2.3472 12.3791 2.3092 12.2871C2.2332 12.1041 2.2332 11.8971 2.3092 11.7141C2.3472 11.6221 2.40206 11.539 2.47106 11.47L6.47106 7.46999C6.76406 7.17699 7.2391 7.17699 7.5321 7.46999C7.8251 7.76299 7.8251 8.23803 7.5321 8.53103L4.81213 11.251H19.191L16.4711 8.53103C16.1781 8.23803 16.1781 7.76299 16.4711 7.46999C16.7641 7.17699 17.2391 7.17699 17.5321 7.46999L21.5321 11.47C21.6011 11.539 21.6562 11.6221 21.6942 11.7141C21.7682 11.8971 21.768 12.1031 21.692 12.2871Z" fill="currentColor"/>
</svg>

<svg xmlns="http://www.w3.org/2000/svg" width="24" height="24" fill="none"><path fill="currentColor" d="M21.692 12.287a.748.748 0 0 1-.162.244l-4 4a.748.748 0 0 1-1.06 0 .75.75 0 0 1 0-1.061l2.72-2.72H4.811l2.72 2.72a.75.75 0 0 1-1.06 1.061l-4-4a.748.748 0 0 1-.162-.817.749.749 0 0 1 .162-.244l4-4a.75.75 0 1 1 1.061 1.061l-2.72 2.72h14.379l-2.72-2.72a.75.75 0 0 1 1.061-1.061l4 4a.75.75 0 0 1 .16.817Z"/></svg>
